packages/ffe-icons/icons/filled/sm/4g_mobiledata.svg

<svg xmlns="http://www.w3.org/2000/svg" height="20" viewBox="0 -960 960 960" width="20"><path d="M348.197-298.001q-10.966 0-18.581-7.475-7.615-7.474-7.615-18.524v-94.001H180q-11.05 0-18.524-7.475-7.475-7.474-7.475-18.524v-192q0-11.05 7.418-18.524 7.418-7.475 18.384-7.475 10.966 0 18.581 7.475 7.615 7.474 7.615 18.524v166.001h116.002V-636q0-11.05 7.418-18.524 7.418-7.475 18.384-7.475 10.966 0 18.581 7.475 7.615 7.474 7.615 18.524v166.001H396q11.05 0 18.524 7.418 7.475 7.418 7.475 18.384 0 10.966-7.475 18.581-7.474 7.615-18.524 7.615h-22.001V-324q0 11.05-7.418 18.524-7.418 7.475-18.384 7.475Zm206.111 0q-26.527 0-45.417-18.89t-18.89-45.417v-235.384q0-26.527 18.89-45.417t45.417-18.89H780q11.05 0 18.524 7.418 7.475 7.418 7.475 18.384 0 10.966-7.475 18.581-7.474 7.615-18.524 7.615H554.308q-5.385 0-8.847 3.462-3.462 3.462-3.462 8.847v235.384q0 5.385 3.462 8.847 3.462 3.462 8.847 3.462h187.384q5.385 0 8.847-3.462 3.462-3.462 3.462-8.847v-91.693H660q-11.05 0-18.524-7.418-7.475-7.418-7.475-18.384 0-10.966 7.475-18.581 7.474-7.615 18.524-7.615h120q11.05 0 18.524 7.475 7.475 7.474 7.475 18.524v117.692q0 26.527-18.89 45.417t-45.417 18.89H554.308Z"/></svg>

<svg xmlns="http://www.w3.org/2000/svg" height="20" viewBox="0 -960 960 960" width="20"><path d="M348.2-298q-10.97 0-18.58-7.48Q322-312.95 322-324v-94H180q-11.05 0-18.52-7.48Q154-432.95 154-444v-192q0-11.05 7.42-18.52 7.42-7.48 18.38-7.48 10.97 0 18.58 7.48Q206-647.05 206-636v166h116v-166q0-11.05 7.42-18.52 7.42-7.48 18.38-7.48 10.97 0 18.58 7.48Q374-647.05 374-636v166h22q11.05 0 18.52 7.42 7.48 7.42 7.48 18.38 0 10.97-7.48 18.58Q407.05-418 396-418h-22v94q0 11.05-7.42 18.52-7.42 7.48-18.38 7.48Zm206.11 0q-26.53 0-45.42-18.89T490-362.31v-235.38q0-26.53 18.89-45.42T554.31-662H780q11.05 0 18.52 7.42 7.48 7.42 7.48 18.38 0 10.97-7.48 18.58Q791.05-610 780-610H554.31q-5.39 0-8.85 3.46t-3.46 8.85v235.38q0 5.39 3.46 8.85t8.85 3.46h187.38q5.39 0 8.85-3.46t3.46-8.85V-454h-94q-11.05 0-18.52-7.42-7.48-7.42-7.48-18.38 0-10.97 7.48-18.58Q648.95-506 660-506h120q11.05 0 18.52 7.48Q806-491.05 806-480v117.69q0 26.53-18.89 45.42T741.69-298H554.31Z"/></svg>
